X: 15511
T: Glenside, The
R: polka
M: 2/4
K: Adorian
|:d|e2 ed|B/c/d Gd|e/f/e/d/ e>d|e/f/g ag|
e2 e>d|Bd G2|BG dB|A2- A:|
|:d|ea ag/a/|b>a gd|ea ab|g/a/g/f/ gd|
eg gf/e/|dB G>A|BG dB|A2 A:|

